X:670
T:Frisco Waltz
C:Ward Allen
R:Waltz
M:3/4
L:1/8
Z:<http://tunes.nhcountrydance.com>.
K:F
A2c2|f3 e fg|f2 e2 d2|e4 e2|({f} e2) d2 c2| B d3 d2|({e} d2) c2 B2|A c3 c2|({d}c2) d2 e2|
f3 e fg|f2 e2 d2|e4 e2|({f}e2) d2 cA| c3 c dc|G3 G AG|F6|F4|]
|z2|A,6|A,2 B,2 C2|D6 |D3 C B,A,| G,6|({A,}G,2) A,2 B,2|C6|C2 =B,2 _B,2|
A,6 |A,2 B,2 C2|D6 |D3 C B,A,| G,3 E ED|C3 A AG|F3 E FG|F2|]


